!! 00000] TT[WS
!!!OTL: Guijie shaoshu
!!!ARE: Asia, China, Shanxi Linxian
!! Ethnic Group: Han
!! WII, 93 (1)
!!!SCT: J0539
!!!YEM: Copyright 1995, estate of Helmut Schaffrath.
**kern
*ICvox
*Ivox
*M2/4
*k[f#]
*G:
{8.g
16f#
8e
8d
=1
4g
8a
8dd
=2
8.g
16a
8dd
8a
=3
8f#
8e
4d}
=4
{8.a
16dd
16a
16b
16a
16g
=5
8a
8d
8.g
16b
=6
8g
8d
16e
16d
8e
=7
2d}
==
!!!AGN: Xiaodiao. Qingge, Sichun
!!!ONB: ESAC (Essen Associative Code) Database: CHINA
!!!AMT: simple duple
!!!AIN: vox
!!!EED: Helmut Schaffrath
!!!EEV: 1.0
*-
